tools/download-figma-icons/icons/outlined-medium/euro-symbol.svg

<svg width="24" height="24" viewBox="0 0 24 24" fill="none" xmlns="http://www.w3.org/2000/svg">
<path fill-rule="evenodd" clip-rule="evenodd" d="M15.3194 16.3534C14.9136 16.6376 14.4944 16.8544 14.0736 16.9961C12.2736 17.6036 10.3229 17.1169 8.98263 15.7226C8.55888 15.2831 8.23263 14.7829 7.99113 14.2504H12.7499C13.1646 14.2504 13.4999 13.9151 13.4999 13.5004C13.4999 13.0864 13.1646 12.7504 12.7499 12.7504H7.55688C7.48863 12.2524 7.48863 11.7484 7.55688 11.2504H12.7499C13.1646 11.2504 13.4999 10.9151 13.4999 10.5004C13.4999 10.0864 13.1646 9.75038 12.7499 9.75038H7.98963C8.23188 9.21788 8.55888 8.71688 8.98263 8.27663C10.6746 6.51938 13.3394 6.25013 15.3194 7.63763C15.6591 7.87613 16.1264 7.79363 16.3641 7.45463C16.6019 7.11563 16.5201 6.64763 16.1804 6.40988C13.5906 4.59338 10.1091 4.94138 7.90113 7.23713C7.19613 7.96988 6.69438 8.83313 6.38313 9.75038H4.49988C4.08513 9.75038 3.74988 10.0864 3.74988 10.5004C3.74988 10.9151 4.08513 11.2504 4.49988 11.2504H6.04938C5.99538 11.7491 5.99538 12.2516 6.04938 12.7504H4.49988C4.08513 12.7504 3.74988 13.0864 3.74988 13.5004C3.74988 13.9151 4.08513 14.2504 4.49988 14.2504H6.38388C6.69513 15.1676 7.19613 16.0301 7.90113 16.7629C9.14913 18.0604 10.8081 18.7549 12.5129 18.7549C13.1931 18.7549 13.8809 18.6446 14.5529 18.4174C15.1101 18.2299 15.6576 17.9486 16.1804 17.5811C16.5201 17.3426 16.6019 16.8754 16.3641 16.5364C16.1264 16.1981 15.6591 16.1141 15.3194 16.3534Z" fill="black"/>
</svg>

<svg xmlns="http://www.w3.org/2000/svg" width="24" height="24" fill="none" viewBox="0 0 24 24"><path fill="currentColor" fill-rule="evenodd" d="M15.32 16.353a5 5 0 0 1-1.246.643c-1.8.608-3.751.12-5.091-1.273-.424-.44-.75-.94-.992-1.473h4.759a.75.75 0 1 0 0-1.5H7.557a5.5 5.5 0 0 1 0-1.5h5.193a.75.75 0 1 0 0-1.5H7.99a5.2 5.2 0 0 1 .993-1.473c1.692-1.758 4.356-2.027 6.336-.64a.75.75 0 1 0 .861-1.227c-2.59-1.817-6.07-1.469-8.279.827A6.7 6.7 0 0 0 6.383 9.75H4.5a.75.75 0 1 0 0 1.5h1.55a7 7 0 0 0 0 1.5H4.5a.75.75 0 1 0 0 1.5h1.884c.311.918.812 1.78 1.517 2.513 1.248 1.297 2.907 1.992 4.612 1.992.68 0 1.368-.11 2.04-.338a6.4 6.4 0 0 0 1.627-.836.75.75 0 1 0-.86-1.228" clip-rule="evenodd"/></svg>
